themes/default/assets/images/icons/mid/seo-get-found.svg

<?xml version="1.0" encoding="UTF-8"?>
<svg width="100px" height="75px" viewBox="0 0 100 75" version="1.1" xmlns="http://www.w3.org/2000/svg" xmlns:xlink="http://www.w3.org/1999/xlink">
    <!-- Generator: sketchtool 59 (101010) - https://sketch.com -->
    <title>7836E86E-541A-4503-9AE1-30BE3CFE5CDE</title>
    <desc>Created with sketchtool.</desc>
    <g id="Page-1" stroke="none" stroke-width="1" fill="none" fill-rule="evenodd">
        <g id="Icons" transform="translate(-134.000000, -2501.000000)" fill-rule="nonzero">
            <g id="mid-icon-getfound" transform="translate(134.000000, 2501.000000)">
                <path d="M99.0196078,55.875 L99.0196078,55.875 L99.0196078,5.31907895 C99.1159329,3.87171966 98.6240965,2.44705163 97.6568627,1.37171053 C96.5842506,0.407237841 95.1701145,-0.0802902392 93.7352941,0.0197368421 L6.26470588,0.0493421053 C2.81372549,0.0592105263 0.980392157,1.90460526 0.980392157,5.38815789 L0.980392157,58.5592105 L0.980392157,58.5592105 L0.980392157,62.4473684 C0.886339639,63.894419 1.37787652,65.3182195 2.34313725,66.3947368 C3.41689314,67.3572408 4.83018103,67.8444765 6.26470588,67.7467105 L39.9705882,67.7467105 C39.7941176,71.8026316 38.0098039,72.4440789 36.5882353,72.6809211 L34.4313725,72.6809211 L34.4313725,74.0526316 L65.1078431,74.0526316 L65.1078431,72.6118421 L63.7254902,72.6118421 C62.2843137,72.4243421 60.5098039,71.7927632 60.3333333,67.7269737 L93.754902,67.7269737 C97.2058824,67.7269737 99.0392157,65.8717105 99.0294118,62.3881579 L99.0196078,55.875 Z M6.26470588,1.43092105 L93.6862745,1.37171053 L93.745098,1.37171053 C94.8163203,1.29813001 95.8731564,1.65272633 96.6862745,2.35855263 C97.3846896,3.17861763 97.7365757,4.24122097 97.6666667,5.31907895 L97.6666667,57.1184211 L2.40196078,57.2368421 L2.40196078,55.9539474 L2.40196078,55.9539474 L2.40196078,5.39802632 C2.35294118,2.65460526 3.55882353,1.43092105 6.26470588,1.43092105 Z M60.4803922,72.6315789 L39.8039216,72.7203947 C40.6078431,71.9111842 41.2254902,70.125 41.3333333,67.7861842 L58.9803922,67.7861842 C58.9491627,69.5217391 59.4752364,71.2210956 60.4803922,72.6315789 L60.4803922,72.6315789 Z M93.754902,66.3355263 L58.9803922,66.3355263 L41.3333333,66.3355263 L6.33333333,66.3355263 C5.26373506,66.3965718 4.2114476,66.0435016 3.39215686,65.3486842 C2.69000139,64.530756 2.33758972,63.4665655 2.41176471,62.3881579 L2.41176471,58.5592105 L97.6666667,58.4901316 L97.6666667,62.3684211 C97.6666667,65.0723684 96.4215686,66.3256579 93.754902,66.3355263 Z" id="Shape" fill="#A8C5DD"></path>
                <path d="M82.8627451,32.7532895 L45.0196078,32.7532895 C44.651418,32.7532895 44.3529412,32.452849 44.3529412,32.0822368 C44.3529412,31.7116247 44.651418,31.4111842 45.0196078,31.4111842 L82.8627451,31.4111842 C84.9094474,31.4111841 86.5686273,29.7410885 86.5686273,27.6809211 C86.5686273,25.6207536 84.9094474,23.950658 82.8627451,23.9506579 L45.6078431,23.9506579 C45.2396533,23.9506579 44.9411765,23.6502174 44.9411765,23.2796053 C44.9411765,22.9089931 45.2396533,22.6085526 45.6078431,22.6085526 L82.8627451,22.6085526 C85.645827,22.6085526 87.9019606,24.8795294 87.9019606,27.6809211 C87.9019606,30.4823127 85.645827,32.7532895 82.8627451,32.7532895 L82.8627451,32.7532895 Z" id="Path" fill="#032663"></path>
                <path d="M43.0686275,34.6578947 L27.6960784,34.6578947 C27.3563934,34.6165072 27.1008977,34.3263235 27.1008977,33.9819079 C27.1008977,33.6374923 27.3563934,33.3473086 27.6960784,33.3059211 L43.0686275,33.3059211 C43.4083125,33.3473086 43.6638082,33.6374923 43.6638082,33.9819079 C43.6638082,34.3263235 43.4083125,34.6165072 43.0686275,34.6578947 L43.0686275,34.6578947 Z" id="Path" fill="#032663"></path>
                <path d="M44.0588235,22.0559211 L27.1470588,22.0559211 C26.8073738,22.0145335 26.5518781,21.7243498 26.5518781,21.3799342 C26.5518781,21.0355186 26.8073738,20.745335 27.1470588,20.7039474 L44.0588235,20.7039474 C44.3985086,20.745335 44.6540043,21.0355186 44.6540043,21.3799342 C44.6540043,21.7243498 44.3985086,22.0145335 44.0588235,22.0559211 Z" id="Path" fill="#032663"></path>
                <path d="M26.4117647,32.7532895 L17.1568627,32.7532895 C14.3737808,32.7532895 12.1176471,30.4823128 12.1176471,27.6809211 C12.1176471,24.8795293 14.3737808,22.6085526 17.1568627,22.6085526 L25.8137255,22.6085526 C26.1819153,22.6085526 26.4803922,22.9089931 26.4803922,23.2796053 C26.4803922,23.6502174 26.1819153,23.9506579 25.8137255,23.9506579 L17.1568627,23.9506579 C15.1101604,23.9506579 13.4509804,25.6207536 13.4509804,27.6809211 C13.4509804,29.7410885 15.1101604,31.4111842 17.1568627,31.4111842 L26.4117647,31.4111842 C26.7799545,31.4111842 27.0784314,31.7116247 27.0784314,32.0822368 C27.0784314,32.452849 26.7799545,32.7532895 26.4117647,32.7532895 L26.4117647,32.7532895 Z" id="Path" fill="#032663"></path>
                <path d="M24.8627451,28.3519737 L17.4509804,28.3519737 C17.0827906,28.3519737 16.7843137,28.0515332 16.7843137,27.6809211 C16.7843137,27.3103089 17.0827906,27.0098684 17.4509804,27.0098684 L24.8627451,27.0098684 C25.2309349,27.0098684 25.5294118,27.3103089 25.5294118,27.6809211 C25.5294118,28.0515332 25.2309349,28.3519737 24.8627451,28.3519737 Z" id="Path" fill="#A8C5DD"></path>
                <path d="M39.0882353,28.3519737 L25.3039216,28.3519737 C24.9357317,28.3519737 24.6372549,28.0515332 24.6372549,27.6809211 C24.6372549,27.3103089 24.9357317,27.0098684 25.3039216,27.0098684 L39.0882353,27.0098684 C39.4564251,27.0098684 39.754902,27.3103089 39.754902,27.6809211 C39.754902,28.0515332 39.4564251,28.3519737 39.0882353,28.3519737 Z" id="Path" fill="#A8C5DD"></path>
                <path d="M50.1372549,41.1414474 L43.7647059,34.6677632 C47.1406475,30.7784917 47.3622499,25.045035 44.2967048,20.9035086 C41.2311596,16.7619821 35.7098263,15.3355458 31.0416928,17.4790765 C26.3735593,19.6226072 23.8245984,24.7547908 24.9224269,29.7998607 C26.0202553,34.8449305 30.4671479,38.4346905 35.5980392,38.4177632 C38.2762394,38.4183369 40.8588344,37.4157903 42.8431373,35.6052632 L49.2058824,42.0888158 C49.3332846,42.2093817 49.5016048,42.2763485 49.6764706,42.2763485 C49.8487383,42.2780523 50.0145819,42.2105681 50.1372549,42.0888158 C50.3912662,41.8247803 50.3912662,41.4054828 50.1372549,41.1414474 Z M25.9803102,27.3256579 C26.0290173,21.9908684 30.3562776,17.7011774 35.6563235,17.7335488 C40.9563695,17.7662884 45.2312973,22.1088182 45.2152825,27.4438077 C45.1991775,32.7787972 40.8981838,37.0951702 35.5980392,37.0953947 C30.2615253,37.0627844 25.9586662,32.6874665 25.9803102,27.3157895 L25.9803102,27.3256579 Z" id="Shape" fill="#2969F6"></path>
            </g>
        </g>
    </g>
</svg>

<svg width="100" height="75" xmlns="http://www.w3.org/2000/svg"><g fill-rule="nonzero" fill="none"><path d="M99.02 55.875V5.319a5.37 5.37 0 00-1.363-3.947A5.312 5.312 0 0093.735.02L6.265.05C2.814.06.98 1.904.98 5.387v57.059a5.39 5.39 0 001.363 3.948 5.331 5.331 0 003.922 1.352H39.97c-.177 4.056-1.961 4.697-3.383 4.934h-2.157v1.372h30.677v-1.441h-1.383c-1.44-.188-3.215-.82-3.392-4.885h33.422c3.45 0 5.284-1.855 5.274-5.339l-.01-6.513zM6.265 1.431l87.421-.06h.06a4.061 4.061 0 012.94.988c.699.82 1.05 1.882.98 2.96v51.8l-95.264.118V5.398c-.05-2.743 1.157-3.967 3.863-3.967zm54.215 71.2l-20.676.09c.804-.81 1.421-2.596 1.53-4.935H58.98a8.1 8.1 0 001.5 4.846zm33.275-6.295H6.333a4.178 4.178 0 01-2.94-.987 4.113 4.113 0 01-.981-2.96v-3.83l95.255-.069v3.878c0 2.704-1.245 3.958-3.912 3.968z" fill="#A8C5DD"/><path d="M82.863 32.753H45.02a.669.669 0 01-.667-.67c0-.371.298-.672.667-.672h37.843c2.046 0 3.706-1.67 3.706-3.73s-1.66-3.73-3.706-3.73H45.608a.669.669 0 01-.667-.671c0-.371.299-.671.667-.671h37.255c2.783 0 5.039 2.27 5.039 5.072 0 2.801-2.256 5.072-5.04 5.072zM43.069 34.658H27.696a.68.68 0 01-.595-.676.68.68 0 01.595-.676H43.07a.68.68 0 01.595.676.68.68 0 01-.595.676zM44.059 22.056H27.147a.68.68 0 01-.595-.676.68.68 0 01.595-.676H44.06a.68.68 0 01.595.676.68.68 0 01-.595.676zM26.412 32.753h-9.255c-2.783 0-5.04-2.27-5.04-5.072 0-2.801 2.257-5.072 5.04-5.072h8.657c.368 0 .666.3.666.67 0 .371-.298.672-.666.672h-8.657c-2.047 0-3.706 1.67-3.706 3.73s1.66 3.73 3.706 3.73h9.255c.368 0 .666.3.666.671 0 .37-.298.671-.666.671z" fill="#032663"/><path d="M24.863 28.352H17.45a.669.669 0 01-.667-.671c0-.37.299-.671.667-.671h7.412c.368 0 .666.3.666.67 0 .372-.298.672-.666.672z" fill="#A8C5DD"/><path d="M39.088 28.352H25.304a.669.669 0 01-.667-.671c0-.37.299-.671.667-.671h13.784c.368 0 .667.3.667.67 0 .372-.299.672-.667.672z" fill="#A8C5DD"/><path d="M50.137 41.141l-6.372-6.473a11.02 11.02 0 00.532-13.764c-3.066-4.142-8.587-5.568-13.255-3.425-4.668 2.144-7.217 7.276-6.12 12.32 1.098 5.046 5.545 8.636 10.676 8.619 2.678 0 5.26-1.002 7.245-2.813l6.363 6.484c.127.12.296.187.47.187a.645.645 0 00.461-.187.684.684 0 000-.948zM25.98 27.326c.049-5.335 4.376-9.625 9.676-9.592 5.3.032 9.575 4.375 9.56 9.71-.017 5.335-4.318 9.651-9.618 9.651-5.336-.032-9.64-4.408-9.618-9.78v.01z" fill="#2969F6"/></g></svg>
